03_Blackmagic LUTs_Chocolate Shade.cube
TITLE "Generated by Resolve"
LUT_3D_SIZE 9
0 0 0
0.100572 0.0650034 0.0945602
0.183825 0.0660563 0.0953841
0.283238 0.0628519 0.0919966
0.543343 0 0
0.672648 0 0
0.778729 0 0
0.868559 0 0
0.95436 0 0
0.00354009 0.0897841 0.00354009
0.130831 0.102541 0.0718547
0.221714 0.117571 0.123125
0.320363 0.120302 0.132265
0.554925 0.049897 0
0.689281 0.0458381 0
0.801328 0.0503243 0
0.897749 0.0616312 0
0.990295 0.0765393 0
0 0.191257 0
0.129534 0.187686 0.0203403
0.256962 0.189761 0.0894331
0.370947 0.196231 0.138903
0.569055 0.174685 0
0.711971 0.176654 0
0.830091 0.187182 0
0.93135 0.203342 0.00898756
1 0.221454 0.0271
0 0.322744 0
0.11696 0.324102 0
0.264927 0.322713 0.0466926
0.406271 0.323751 0.110185
0.576684 0.328756 0
0.720287 0.333944 0
0.839261 0.345342 0.00199893
0.940154 0.361135 0.017792
1 0.379004 0.0356603
0 0.478706 0
0.109575 0.485771 0
0.256992 0.489845 0
0.419196 0.48925 0
0.575906 0.490196 0
0.719387 0.495262 0
0.838712 0.507012 0.00144961
0.940185 0.523384 0.0178225
1 0.540887 0.0353094
0 0.640024 0
0.10959 0.646769 0
0.257038 0.650874 0
0.419821 0.650858 0
0.576806 0.652079 0
0.719539 0.656397 0
0.837125 0.666407 0
0.935836 0.680018 0.0134737
1 0.693736 0.0271763
0 0.794476 0
0.128847 0.801114 0
0.275181 0.80412 0.0024567
0.435843 0.801999 0.000335698
0.5897 0.800076 0
0.728298 0.800275 0
0.841047 0.805432 0.00378424
0.934539 0.813825 0.0121767
1 0.822293 0.0206455
0.0298009 0.935836 0.0298009
0.16231 0.938979 0.0329442
0.304219 0.937545 0.0315099
0.459876 0.930388 0.0243534
0.608454 0.923217 0.0171664
0.741863 0.918227 0.012192
0.849577 0.918364 0.0123293
0.938399 0.922072 0.0160372
1 0.926436 0.0204013
0.0593576 1 0.0593576
0.186618 1 0.0572366
0.323384 1 0.0506752
0.474113 1 0.0385901
0.618204 1 0.0269169
0.747753 1 0.0180667
0.852399 1 0.0151369
0.938933 1 0.0165713
1 1 0.019379
0.00207523 0.00207523 0.0623484
0.117617 0.019913 0.0634928
0.207462 0.0470588 0.0713512
0.306004 0.0529793 0.070985
0.5458 0 0.014786
0.675425 0 0.0059968
0.781933 0 0.00494392
0.872374 0 0.0102846
0.958816 0 0.019089
0.00585946 0.0921035 0.0661326
0.12781 0.0846723 0.0587015
0.225574 0.126223 0.118425
0.328008 0.12604 0.118059
0.429038 0.128923 0.120821
0.693996 0.0505531 0.0245823
0.806729 0.0557107 0.0297398
0.903853 0.0677348 0.0417639
0.996994 0.083238 0.0572519
0.000534066 0.194888 0.0608072
0.127214 0.192187 0.0581064
0.263691 0.19649 0.111345
0.373205 0.207416 0.154131
0.476768 0.219013 0.171405
0.718837 0.183505 0.049424
0.837293 0.194385 0.0603037
0.93875 0.210742 0.0766461
1 0.22884 0.0947585
0 0.328664 0.045594
0.11873 0.332692 0.0496223
0.269184 0.332708 0.0739757
0.415351 0.33283 0.134447
0.529213 0.343435 0.18378
0.725628 0.341665 0.061326
0.846372 0.352468 0.0693828
0.947433 0.368414 0.0853285
1 0.386389 0.103319
0 0.486061 0.0407721
0.116991 0.493172 0.0478828
0.268559 0.495033 0.062974
0.431647 0.490608 0.105272
0.567391 0.493248 0.163546
0.726787 0.502663 0.0573739
0.846098 0.514397 0.0691081
0.947448 0.530648 0.085359
1 0.547921 0.102617
0 0.647242 0.0409705
0.11696 0.654139 0.0478523
0.264439 0.658274 0.0520027
0.427176 0.658213 0.0519417
0.583993 0.659266 0.0529793
0.726467 0.663325 0.0570535
0.843687 0.672969 0.0666972
0.941924 0.686107 0.0798352
1 0.699275 0.0930037
0.000122072 0.801785 0.0603952
0.135958 0.808225 0.0668345
0.281971 0.810925 0.0695354
0.442252 0.808392 0.0670024
0.59559 0.805966 0.0645762
0.733654 0.805615 0.0642405
0.845853 0.810254 0.068864
0.938827 0.818128 0.0767376
1 0.826093 0.0847028
0.0360266 0.942061 0.0962997
0.168002 0.944671 0.0988937
0.309361 0.942687 0.0969253
0.4645 0.935012 0.08925
0.612558 0.927321 0.0815442
0.745495 0.921843 0.0760815
0.85275 0.921538 0.075761
0.941222 0.92491 0.0791333
1 0.929 0.083238
0.063798 1 0.124071
0.190555 1 0.121431
0.326833 1 0.114382
0.47715 1 0.1019
0.62092 1 0.0899062
0.75024 1 0.080827
0.854719 1 0.0777295
0.941146 1 0.079057
1 1 0.0818494
0.00262455 0.00262455 0.148241
0.12343 0 0.138369
0.234714 0.014313 0.11664
0.338323 0.0291142 0.0993973
0.546532 0 0.100877
0.676509 0 0.0924392
0.78352 0 0.0918746
0.874586 0 0.0978408
0.961715 0 0.107317
0.00643931 0.0926833 0.152041
0.128664 0.0855268 0.1449
0.251804 0.0947585 0.133745
0.355261 0.112779 0.128298
0.45388 0.122667 0.130678
0.697124 0.0536812 0.113054
0.810559 0.0595407 0.118914
0.90837 0.0722667 0.131624
1 0.0882734 0.147646
0.00257877 0.196933 0.148196
0.1299 0.194888 0.146136
0.270207 0.191852 0.143099
0.377478 0.216098 0.174395
0.485924 0.226398 0.184619
0.585397 0.241367 0.199588
0.842771 0.199878 0.151125
0.94435 0.216342 0.16759
1 0.234394 0.185641
0 0.333013 0.135286
0.123644 0.337606 0.139879
0.269963 0.340597 0.142855
0.42269 0.340169 0.18233
0.530419 0.352987 0.221149
0.62649 0.370306 0.243229
0.851713 0.357794 0.160052
0.952941 0.373922 0.176196
1 0.391989 0.194263
0 0.491646 0.131701
0.12256 0.498741 0.138796
0.269673 0.502525 0.142565
0.435203 0.499123 0.159518
0.574746 0.500603 0.211475
0.676478 0.514092 0.257542
0.849668 0.520272 0.162615
0.952834 0.536034 0.176089
1 0.553048 0.193088
0 0.65272 0.131792
0.122545 0.659724 0.138781
0.270039 0.663874 0.142931
0.43653 0.661585 0.152285
0.593301 0.658488 0.190326
0.714931 0.663066 0.244022
0.84828 0.677577 0.156634
0.946029 0.690211 0.169268
1 0.702815 0.181888
0.00556954 0.807218 0.151171
0.141161 0.813428 0.157397
0.286854 0.815793 0.159747
0.446693 0.812833 0.156786
0.599481 0.809857 0.153811
0.736996 0.808972 0.152926
0.848676 0.813077 0.157031
0.941146 0.820432 0.164401
1 0.827924 0.171878
0.0402838 0.946319 0.185885
0.17171 0.948363 0.18793
0.31252 0.945846 0.185428
0.46714 0.937652 0.177234
0.614694 0.929458 0.169024
0.747127 0.923491 0.163058
0.854002 0.922774 0.162341
0.942153 0.925826 0.165393
1 0.929671 0.169253
0.0662547 1 0.211872
0.192508 1 0.208728
0.328313 1 0.201205
0.478264 1 0.188357
0.621744 1 0.176074
0.750851 1 0.166766
0.855177 1 0.163531
0.941543 1 0.164797
1 1 0.16759
0.000122072 0.000122072 0.272663
0.12137 0 0.264469
0.246281 0 0.240833
0.365164 0.00195315 0.207874
0.544381 0 0.225635
0.674754 0 0.217609
0.782315 0 0.217594
0.874037 0 0.224201
0.961822 0 0.234363
0.00408942 0.0903334 0.276631
0.126635 0.0834974 0.269795
0.260258 0.0770886 0.258442
0.386969 0.0874342 0.229694
0.488884 0.104173 0.213962
0.69749 0.0540475 0.24033
0.811627 0.0606241 0.246906
0.910094 0.0739757 0.260258
1 0.0904555 0.276753
0.00184634 0.196201 0.274388
0.129839 0.194812 0.272984
0.270817 0.192462 0.270649
0.413474 0.199237 0.256199
0.517006 0.219684 0.252354
0.611948 0.238895 0.263798
0.845319 0.202411 0.280598
0.946944 0.218936 0.297108
1 0.236866 0.315053
0 0.334569 0.263767
0.125719 0.339681 0.268864
0.272374 0.343008 0.27219
0.435019 0.34284 0.272038
0.533318 0.360006 0.289189
0.634012 0.376181 0.305364
0.713359 0.397726 0.326955
0.955489 0.376486 0.305669
1 0.394583 0.323781
0 0.494255 0.261219
0.125093 0.501274 0.268254
0.271977 0.504814 0.271794
0.434226 0.50428 0.271244
0.579492 0.505333 0.303334
0.67512 0.52105 0.339391
0.767956 0.540276 0.352972
0.955139 0.538338 0.305318
1 0.555047 0.322026
0 0.655238 0.261234
0.125139 0.662303 0.268299
0.272602 0.666438 0.272435
0.435126 0.666148 0.272145
0.594339 0.664027 0.287816
0.718959 0.667094 0.335149
0.823163 0.681071 0.331884
0.945052 0.691386 0.299382
1 0.703182 0.309178
0.00793469 0.809598 0.280476
0.143252 0.815534 0.286412
0.288579 0.817533 0.288411
0.447944 0.814084 0.284962
0.6038 0.808423 0.289921
0.739864 0.804623 0.309514
0.846876 0.8121 0.291936
0.940291 0.819577 0.290455
1 0.826566 0.297444
0.0413367 0.947372 0.313863
0.172213 0.948867 0.315358
0.312505 0.94583 0.312322
0.46659 0.937118 0.303624
0.613657 0.92842 0.294911
0.745617 0.921981 0.288472
0.85211 0.920897 0.287388
0.939971 0.923644 0.29015
1 0.927275 0.293782
0.0655375 1 0.338064
0.191287 1 0.334447
0.32665 1 0.326482
0.476265 1 0.313283
0.619486 1 0.30074
0.748394 1 0.291249
0.852613 1 0.287877
0.938933 1 0.289113
1 1 0.291936
0 0 0.43061
0.116152 0 0.422415
0.248402 0 0.411337
0.396429 0 0.396567
0.539727 0 0.384115
0.670558 0 0.376516
0.778714 0 0.377111
0.871077 0 0.384375
0.959548 0 0.395209
0 0.0854658 0.434882
0.122133 0.078996 0.428412
0.257343 0.0709392 0.420233
0.40087 0.0695506 0.396445
0.51873 0.0825513 0.369909
0.695476 0.0520333 0.401434
0.81033 0.0593118 0.408728
0.909377 0.0732586 0.42266
1 0.0901503 0.439551
0 0.193072 0.434379
0.127382 0.192355 0.433661
0.269062 0.190707 0.432013
0.426566 0.188434 0.425284
0.553872 0.203342 0.405081
0.649836 0.226825 0.399329
0.845289 0.20238 0.443671
0.946899 0.218906 0.460197
1 0.236667 0.477958
0 0.333715 0.426017
0.125307 0.339269 0.431586
0.272251 0.34287 0.435187
0.435004 0.342824 0.435142
0.573938 0.351202 0.425162
0.665187 0.372 0.424903
0.73872 0.396048 0.442191
0.955459 0.37644 0.468757
1 0.394568 0.48687
0 0.49424 0.424323
0.124956 0.501137 0.43122
0.271702 0.50454 0.434638
0.434134 0.504173 0.434272
0.591348 0.505638 0.435737
0.680018 0.525551 0.45565
0.779126 0.54229 0.472374
0.881025 0.557626 0.487709
1 0.55433 0.484413
0 0.655192 0.424308
0.125124 0.662303 0.431403
0.272526 0.666362 0.435477
0.434882 0.665904 0.435019
0.590997 0.66627 0.435386
0.721233 0.669032 0.468254
0.828885 0.680919 0.467826
0.931945 0.69189 0.468345
1 0.700755 0.469856
0.00761425 0.809262 0.443275
0.142626 0.814908 0.448905
0.287556 0.816495 0.450492
0.446403 0.812543 0.44654
0.598093 0.808469 0.442466
0.737057 0.804166 0.453483
0.844755 0.809461 0.44564
0.936645 0.815946 0.449943
1 0.822446 0.456458
0.0395819 0.945632 0.475242
0.169924 0.946578 0.476204
0.309697 0.943023 0.472633
0.463279 0.933806 0.463416
0.609842 0.924605 0.454215
0.74136 0.917708 0.447333
0.847517 0.916289 0.445899
0.935103 0.918776 0.448402
1 0.922225 0.451835
0.0620279 1 0.497688
0.187289 1 0.493568
0.322255 1 0.485206
0.471565 1 0.471702
0.614527 1 0.458915
0.743282 1 0.449256
0.847395 1 0.445792
0.933715 1 0.446998
1 1 0.449882
0 0 0.597299
0.110246 0 0.589105
0.242603 0 0.578134
0.390875 0 0.563592
0.534539 0 0.551492
0.665843 0 0.544396
0.774655 0 0.545632
0.867689 0 0.553552
0.956847 0 0.565072
0 0.0800336 0.602014
0.117098 0.0739757 0.595956
0.252888 0.0664225 0.588418
0.405875 0.0565957 0.578592
0.555261 0.0502327 0.572213
0.693019 0.0495766 0.571557
0.80856 0.057557 0.579538
0.908125 0.0720073 0.594003
1 0.08925 0.611231
0 0.189487 0.603372
0.124483 0.189456 0.603326
0.26688 0.18851 0.602396
0.426566 0.185458 0.599237
0.572229 0.19205 0.585031
0.683299 0.212253 0.56849
0.844587 0.201678 0.615549
0.946151 0.218143 0.632013
1 0.235676 0.649561
0 0.332341 0.597223
0.124331 0.338293 0.603189
0.271489 0.342123 0.607019
0.434302 0.342123 0.607019
0.589517 0.344411 0.605173
0.703288 0.360327 0.58851
0.776287 0.38706 0.588067
0.954757 0.375753 0.640635
1 0.393851 0.658732
0 0.493507 0.59617
0.124041 0.500221 0.602899
0.270817 0.503655 0.606332
0.433387 0.503441 0.606104
0.590661 0.504936 0.607614
0.716106 0.517006 0.601328
0.789471 0.542626 0.608042
0.89395 0.55552 0.63331
1 0.552773 0.655451
0 0.654475 0.596155
0.124422 0.661585 0.603281
0.271733 0.665568 0.607248
0.433875 0.664912 0.606592
0.5897 0.664973 0.606653
0.73077 0.667643 0.609323
0.832624 0.679133 0.620813
0.934981 0.688411 0.630106
1 0.697505 0.639185
0.0065156 0.808164 0.61474
0.141192 0.813474 0.62005
0.285679 0.814618 0.621195
0.443976 0.810117 0.616693
0.595132 0.805524 0.6121
0.731075 0.803037 0.609613
0.841169 0.805585 0.612284
0.932158 0.81146 0.618036
1 0.817517 0.624094
0.0369726 0.943008 0.645212
0.166781 0.943435 0.645624
0.30602 0.939345 0.64155
0.459098 0.929625 0.631815
0.605173 0.919936 0.622141
0.736294 0.912642 0.614847
0.84213 0.910903 0.613108
0.929488 0.913161 0.615351
1 0.916426 0.618616
0.0576791 1 0.665904
0.182467 1 0.661326
0.317067 1 0.652598
0.466072 1 0.638788
0.608835 1 0.625788
0.737438 1 0.615991
0.841505 1 0.612467
0.92781 1 0.613687
1 1 0.616648
0 0 0.751812
0.105318 0 0.743633
0.237827 0 0.732815
0.386374 0 0.718563
0.530434 0 0.706859
0.662303 0 0.700328
0.771756 0 0.70219
0.865461 0 0.710796
0.955322 0 0.723018
0 0.0756542 0.757107
0.113176 0.0700542 0.751492
0.249577 0.0631113 0.744564
0.40322 0.0539406 0.735393
0.553292 0.0482643 0.729702
0.691752 0.0483101 0.729763
0.807935 0.0569314 0.738369
0.907958 0.0718395 0.753292
1 0.0893721 0.770825
0 0.187076 0.760418
0.122759 0.187732 0.761074
0.265858 0.187503 0.760845
0.426154 0.185 0.758343
0.582254 0.185321 0.758663
0.725505 0.190173 0.763516
0.844831 0.201923 0.775265
0.946273 0.218265 0.791608
1 0.23566 0.809003
0 0.332067 0.75642
0.124407 0.338369 0.762722
0.271733 0.342367 0.766705
0.434516 0.342351 0.766705
0.591394 0.343511 0.767758
0.72372 0.353033 0.757519
0.811032 0.37702 0.746548
0.955016 0.375998 0.800351
1 0.394034 0.818387
0 0.49369 0.755825
0.123995 0.500175 0.76231
0.270939 0.503777 0.765911
0.433616 0.50367 0.765805
0.590906 0.50518 0.767315
0.732494 0.511177 0.769192
0.823331 0.533455 0.758862
0.906661 0.55346 0.775219
1 0.552041 0.814176
0 0.654719 0.755871
0.124651 0.661814 0.762966
0.271824 0.66566 0.766812
0.433738 0.664759 0.765911
0.589227 0.664485 0.765652
0.729854 0.666712 0.767865
0.835996 0.677455 0.769085
0.937102 0.685542 0.78471
1 0.694942 0.796094
0.0062562 0.807919 0.773953
0.140566 0.812848 0.778881
0.284581 0.813519 0.779553
0.442329 0.808469 0.774517
0.59295 0.803326 0.769375
0.728359 0.80032 0.766369
0.83798 0.80238 0.768414
0.928466 0.807752 0.7738
1 0.813413 0.779446
0.0351263 0.941161 0.802823
0.164401 0.941054 0.802716
0.303136 0.936446 0.798108
0.455711 0.926223 0.787884
0.601312 0.916075 0.777722
0.732052 0.908415 0.770062
0.837598 0.906371 0.768032
0.924743 0.908415 0.770077
1 0.911528 0.77319
0.0540932 1 0.82179
0.178454 1 0.81677
0.312718 1 0.807706
0.461463 1 0.793637
0.604028 1 0.780453
0.732525 1 0.770535
0.83653 0.999268 0.766979
0.922881 1 0.768215
1 1 0.771298
0 0 0.873167
0.102998 0 0.865049
0.235706 0 0.854429
0.384573 0 0.840497
0.529091 0 0.829236
0.66157 0 0.823316
0.771664 0 0.825833
0.866056 0 0.835111
0.956619 0 0.848051
0 0.0740063 0.879194
0.112032 0.0688945 0.874083
0.249073 0.0626078 0.867781
0.403372 0.0541085 0.859281
0.554131 0.0491035 0.854292
0.693309 0.0498665 0.855055
0.810071 0.0590524 0.86424
0.910491 0.0743877 0.879561
1 0.0921492 0.897322
0 0.187488 0.88455
0.123857 0.188846 0.885908
0.267643 0.189288 0.886366
0.428458 0.187289 0.884367
0.584894 0.187961 0.885039
0.728328 0.192996 0.890059
0.847639 0.20473 0.901808
0.948913 0.220905 0.917967
1 0.238285 0.935363
0 0.334508 0.882597
0.127123 0.341085 0.889174
0.274556 0.34519 0.893263
0.437293 0.345113 0.893202
0.593957 0.346029 0.894102
0.736996 0.350652 0.898741
0.856199 0.36228 0.910369
0.957839 0.37882 0.926894
1 0.396765 0.944854
0 0.496376 0.882246
0.126558 0.502754 0.888624
0.273686 0.506523 0.892393
0.436454 0.506493 0.892363
0.593698 0.507988 0.893858
0.73698 0.512901 0.898665
0.84535 0.52874 0.894728
0.920531 0.553201 0.891951
1 0.553704 0.939574
0 0.657557 0.882429
0.127413 0.664576 0.889464
0.274418 0.668254 0.893141
0.436072 0.667094 0.891981
0.591196 0.666453 0.89134
0.73135 0.668208 0.893095
0.843961 0.675883 0.896635
0.93991 0.685176 0.909056
1 0.69482 0.919707
0.00846876 0.810132 0.899901
0.142367 0.814649 0.904433
0.285863 0.814801 0.904585
0.443076 0.809216 0.898985
0.593164 0.80354 0.893309
0.728054 0.800015 0.889799
0.837186 0.801572 0.891356
0.927184 0.80647 0.896239
1 0.811765 0.901534
0.0356603 0.941711 0.927092
0.164416 0.94107 0.926467
0.302647 0.935973 0.921355
0.454719 0.925246 0.910643
0.599878 0.914641 0.900038
0.730297 0.906645 0.892042
0.835569 0.904341 0.889738
0.922515 0.906188 0.891585
1 0.909194 0.894591
0.0529488 1 0.944366
0.176898 1 0.938949
0.310857 1 0.929564
0.459358 1 0.915267
0.601755 1 0.901915
0.730159 1 0.891905
0.83415 0.996887 0.888319
0.920562 0.998199 0.889632
1 1 0.892836
0 0 0.980453
0.101839 0 0.972457
0.234791 0 0.962066
0.384009 0 0.948501
0.529015 0 0.937743
0.662135 0 0.932448
0.7729 0 0.935637
0.867979 0 0.945602
0.959243 0 0.959243
0 0.0736095 0.987366
0.1122 0.0690623 0.982818
0.249882 0.0634165 0.977157
0.404852 0.0555886 0.969329
0.556313 0.0512703 0.965026
0.696178 0.0527352 0.966491
0.813458 0.0624399 0.976196
0.914229 0.0781109 0.991867
1 0.0960555 1
0 0.189212 0.994858
0.126299 0.191272 0.996918
0.270726 0.19237 0.998001
0.431983 0.190829 0.99646
0.588693 0.191775 0.997421
0.73225 0.196918 1
0.851499 0.208591 1
0.952544 0.224537 1
1 0.242084 1
0 0.33817 0.994812
0.130999 0.344961 1
0.278477 0.349111 1
0.441077 0.348913 1
0.59762 0.349691 1
0.740841 0.354498 1
0.860121 0.366201 1
0.96173 0.382712 1
1 0.400549 1
0 0.500084 0.994522
0.130312 0.506493 1
0.277562 0.510414 1
0.440375 0.51043 1
0.597559 0.511849 1
0.740703 0.516579 1
0.8589 0.527199 1
0.958404 0.541604 1
1 0.556313 1
0 0.661463 0.994919
0.131228 0.668391 1
0.278035 0.67187 1
0.439384 0.67042 1
0.594095 0.669367 1
0.733745 0.670604 1
0.847486 0.676814 1
0.942 0.686183 1
1 0.695628 1
0.0116426 0.813306 1
0.145113 0.817395 1
0.28806 0.816999 1
0.444724 0.810864 1
0.594293 0.804669 1
0.728679 0.800641 0.998978
0.837308 0.801709 1
0.926863 0.806149 1
1 0.811093 1
0.0371252 0.943175 1
0.165362 0.942016 1
0.303075 0.9364 1
0.454673 0.9252 1
0.599435 0.914199 1
0.729534 0.905882 0.999847
0.834562 0.903334 0.997299
0.92134 0.905013 0.998978
1 0.907927 1
0.0527352 1 1
0.176318 1 1
0.309987 1 1
0.458274 1 1
0.600534 1 1
0.728878 0.999191 0.999191
0.832883 0.995621 0.995621
0.919371 0.997009 0.997009
1 1 1
