03_Blackmagic LUTs_Chocolate Shade.cube
TITLE "Generated by Resolve"
LUT_3D_SIZE 33
0 0 0
0.0432441 0.0313268 0.0474708
0.0676585 0.0619364 0.0915999
0.0839551 0.0635386 0.0931411
0.100572 0.0650034 0.0945602
0.118654 0.066041 0.095552
0.138567 0.0665599 0.0959945
0.160266 0.0665599 0.0959487
0.183825 0.0660563 0.0953841
0.208621 0.0652323 0.0945296
0.23386 0.0643168 0.0935531
0.258915 0.0634623 0.0926528
0.283238 0.0628519 0.0919966
0.395407 0 0.00343328
0.472572 0 0
0.508202 0 0
0.543343 0 0
0.577493 0 0
0.610727 0 0
0.642359 0 0
0.672648 0 0
0.70132 0 0
0.728389 0 0
0.754223 0 0
0.778729 0 0
0.802106 0 0
0.824857 0 0
0.846815 0 0
0.868559 0 0
0.889906 0 0
0.911452 0 0
0.932967 0 0
0.95436 0 0
0.00157168 0.0221866 0.00157168
0.0433204 0.0348821 0.0278477
0.0761273 0.0704814 0.0928511
0.0931868 0.0772412 0.103777
0.109407 0.0795605 0.106691
0.127062 0.080766 0.107927
0.146639 0.0812543 0.108309
0.168078 0.0811933 0.10811
0.19147 0.0806287 0.107393
0.216129 0.0797742 0.106401
0.241306 0.0788281 0.105333
0.266331 0.0779889 0.104372
0.290654 0.077409 0.1037
0.336751 0.0605631 0.0784314
0.473381 0 0
0.510307 0 0
0.545617 0 0
0.579965 0 0
0.613397 0 0
0.645258 0 0
0.675776 0 0
0.704723 0 0
0.732067 0 0
0.758206 0 0
0.783047 0 0
0.80679 0 0
0.829938 0 0
0.852277 0 0
0.874418 0 0
0.896178 0 0
0.91812 0 0
0.940047 0 0
0.961852 0 0
0.00262455 0.0446326 0.00262455
0.0424964 0.0486305 0.0168307
0.0774853 0.0672007 0.0614481
0.100649 0.0808728 0.0917525
0.118608 0.0878614 0.105806
0.136507 0.0914015 0.112291
0.155901 0.0931563 0.115312
0.177081 0.0938582 0.116564
0.200229 0.0937972 0.116716
0.224704 0.0932937 0.116274
0.249744 0.0926528 0.115587
0.274693 0.0920577 0.114916
0.299016 0.0917067 0.114488
0.32311 0.0915236 0.114214
0.436454 0.0315404 0.00959792
0.512505 0.00157168 0
0.548043 0 0
0.582635 0 0
0.616342 0 0
0.648493 0 0
0.679332 0 0
0.708614 0 0
0.736339 0 0
0.762875 0 0
0.788113 0 0
0.812253 0 0
0.835798 0 0
0.858549 0 0
0.881102 0.000762951 0
0.903273 0.00341802 0
0.925643 0.0061799 0
0.947997 0.00910964 0
0.97023 0.012253 0
0.00331121 0.0670481 0.00331121
0.0407111 0.0661173 0.00759899
0.0752728 0.073579 0.0336309
0.104005 0.0845502 0.0667277
0.126253 0.0935988 0.0915694
0.14609 0.0994888 0.106584
0.166155 0.102983 0.115114
0.187472 0.104906 0.119844
0.210544 0.105745 0.122255
0.234897 0.105943 0.123369
0.259831 0.105852 0.123812
0.284688 0.105745 0.123995
0.308949 0.105837 0.124239
0.333059 0.106065 0.124529
0.392752 0.0838483 0.0784924
0.515312 0.0261234 0
0.551156 0.0236362 0
0.586069 0.0215152 0
0.620142 0.019791 0
0.652674 0.0186313 0
0.683909 0.0179751 0
0.713588 0.0178836 0
0.741711 0.0183566 0
0.768643 0.0193179 0
0.794293 0.0207828 0
0.81886 0.0226902 0
0.842817 0.024918 0
0.86598 0.0275273 0
0.88896 0.0303502 0
0.911559 0.0334478 0
0.934371 0.0366522 0
0.957168 0.0400092 0
0.979843 0.0435798 0
0.00354009 0.0897841 0.00354009
0.0400244 0.0874495 0.00437934
0.0734264 0.0897841 0.019501
0.104402 0.0955673 0.0450904
0.130831 0.102541 0.0718547
0.153964 0.108553 0.09308
0.175952 0.112932 0.107698
0.198215 0.115846 0.117205
0.221714 0.117571 0.123125
0.246235 0.118547 0.126802
0.271199 0.119142 0.129168
0.296086 0.119646 0.130831
0.320363 0.120302 0.132265
0.344503 0.12105 0.133532
0.37435 0.118669 0.126864
0.503822 0.0604257 0
0.554925 0.049897 0
0.590234 0.048188 0
0.624704 0.0468605 0
0.657633 0.0460975 0
0.689281 0.0458381 0
0.719371 0.0461585 0
0.747921 0.0470588 0
0.775265 0.0484321 0
0.801328 0.0503243 0
0.826322 0.0526589 0
0.850721 0.0553292 0
0.874327 0.0583658 0
0.897749 0.0616312 0
0.92079 0.065156 0
0.94403 0.0688029 0
0.967239 0.0725872 0
0.990295 0.0765393 0
0.00318914 0.113191 0.00318914
0.0393072 0.110445 0.00257877
0.0719463 0.110658 0.0120241
0.103578 0.113054 0.030518
0.132708 0.117037 0.0539254
0.159228 0.121431 0.0766613
0.184009 0.125368 0.0953536
0.208133 0.128481 0.109346
0.232776 0.130678 0.119249
0.257939 0.132235 0.126192
0.283299 0.13344 0.131167
0.308431 0.134569 0.134936
0.332906 0.135836 0.138094
0.357214 0.137194 0.140795
0.381933 0.138537 0.143114
0.480949 0.101259 0.0326543
0.559152 0.0778668 0
0.594858 0.0765698 0
0.62974 0.0756542 0
0.663096 0.0753185 0
0.695155 0.0754711 0
0.725673 0.0762188 0
0.754635 0.0775464 0
0.782437 0.0793469 0
0.808927 0.0816815 0
0.834363 0.0844587 0
0.85919 0.0875563 0
0.883238 0.0910353 0
0.907057 0.0946975 0
0.93048 0.0986038 0
0.954055 0.102586 0
0.977584 0.106691 0
1 0.110948 0.000946059
0.00209049 0.137652 0.00209049
0.038117 0.134874 0.000839246
0.0703288 0.134234 0.00721752
0.102113 0.134844 0.0207828
0.132784 0.136629 0.0398718
0.16199 0.139116 0.0610819
0.18967 0.141787 0.0810864
0.216281 0.144335 0.098085
0.242756 0.146456 0.111482
0.2692 0.148226 0.121782
0.295415 0.149813 0.129717
0.321126 0.151415 0.136019
0.345998 0.153201 0.141299
0.370611 0.155077 0.145785
0.39556 0.156954 0.14963
0.46656 0.137255 0.0751049
0.563455 0.107744 0
0.599603 0.106874 0
0.634897 0.106386 0
0.668681 0.106462 0
0.701183 0.107057 0
0.732143 0.108248 0
0.761547 0.110018 0
0.789776 0.112261 0
0.816693 0.115007 0
0.842527 0.118181 0
0.86772 0.121645 0
0.892088 0.12546 0
0.916228 0.129442 0
0.939941 0.133639 0
0.963775 0.137865 0.00230411
0.987533 0.142199 0.00663767
1 0.14667 0.0110933
0 0.163577 0
0.0360876 0.160952 0
0.0681163 0.160052 0.00314336
0.0999771 0.159854 0.0135195
0.131548 0.160342 0.0289921
0.162676 0.161334 0.0476234
0.192905 0.162676 0.0670481
0.222126 0.164248 0.0852522
0.250828 0.165789 0.101015
0.279026 0.167315 0.114107
0.306538 0.168933 0.124865
0.333181 0.170703 0.133776
0.35874 0.172793 0.14139
0.383841 0.175051 0.147921
0.409171 0.177356 0.153536
0.464042 0.167666 0.102449
0.567224 0.139849 0
0.604013 0.139315 0
0.639765 0.139269 0
0.673991 0.139803 0
0.70692 0.140826 0
0.738277 0.142428 0
0.768078 0.144579 0
0.796658 0.147173 0
0.823911 0.150256 0
0.850034 0.153719 0
0.875517 0.157473 0
0.90013 0.161532 0
0.924483 0.165728 0.002121
0.948394 0.170123 0.0065156
0.972396 0.174533 0.0109255
0.996307 0.179004 0.0153964
1 0.183581 0.0199741
0 0.191257 0
0.0332341 0.188937 0
0.0653086 0.188144 0
0.097322 0.187762 0.00755322
0.129534 0.187686 0.0203403
0.16202 0.187839 0.0364843
0.194308 0.188235 0.0544137
0.225895 0.188907 0.0725261
0.256962 0.189761 0.0894331
0.287221 0.190845 0.104494
0.316426 0.192248 0.117601
0.344396 0.194018 0.128954
0.370947 0.196231 0.138903
0.396826 0.198734 0.147601
0.422766 0.201358 0.155169
0.471046 0.196262 0.113649
0.569055 0.174685 0
0.607965 0.174014 0
0.644099 0.174365 0
0.678706 0.17528 0
0.711971 0.176654 0
0.743664 0.178561 0
0.773754 0.181003 0
0.802594 0.183871 0
0.830091 0.187182 0
0.856428 0.19086 0
0.882078 0.194797 0.000442512
0.906859 0.199023 0.00466926
0.93135 0.203342 0.00898756
0.955352 0.207843 0.013489
0.979446 0.212329 0.0179751
1 0.216861 0.0224918
1 0.221454 0.0271
0 0.221012 0
0.0296941 0.219089 0
0.0619211 0.21857 0
0.0941176 0.21828 0.00210575
0.126787 0.218082 0.0129854
0.160266 0.217838 0.0270085
0.194125 0.217655 0.0432441
0.227756 0.21767 0.0605173
0.261036 0.217884 0.0776074
0.293446 0.218448 0.0937514
0.324559 0.219471 0.108537
0.354131 0.221042 0.121904
0.38201 0.223209 0.133974
0.408911 0.225788 0.144778
0.43566 0.22855 0.154299
0.483955 0.225284 0.109209
0.571832 0.211002 0
0.611093 0.210773 0
0.647547 0.211429 0
0.682429 0.212619 0
0.715953 0.214237 0
0.747875 0.216388 0
0.778164 0.219028 0
0.807187 0.222065 0
0.834821 0.225528 0
0.861295 0.229343 0.00137331
0.887037 0.233371 0.00540169
0.911879 0.237659 0.00968948
0.936416 0.242023 0.0140536
0.960433 0.24654 0.0185702
0.984512 0.251011 0.0230411
1 0.255497 0.0275273
1 0.260029 0.0320592
0 0.252949 0
0.0254826 0.251423 0
0.0579232 0.25127 0
0.0903487 0.25124 0
0.123415 0.251133 0.00630198
0.157641 0.250828 0.0186618
0.192721 0.250385 0.0332952
0.228 0.250004 0.0494392
0.263249 0.249744 0.0661173
0.297719 0.249851 0.0826123
0.3308 0.250462 0.0984207
0.362127 0.251698 0.113237
0.39147 0.253635 0.127016
0.419577 0.256062 0.139605
0.447257 0.258762 0.150912
0.500069 0.256306 0.0885786
0.575113 0.248798 0
0.613108 0.249271 0
0.649775 0.250156 0
0.684855 0.25153 0
0.718547 0.253315 0
0.750591 0.255604 0
0.781003 0.258366 0
0.810101 0.261494 0
0.837797 0.265003 0.000549325
0.864302 0.268849 0.0043946
0.890059 0.272877 0.00842298
0.914885 0.27715 0.0126802
0.939376 0.281468 0.0169985
0.963317 0.285908 0.0214389
0.987289 0.290288 0.0258183
1 0.294636 0.0301823
1 0.299031 0.0345617
0 0.286931 0
0.021088 0.285832 0
0.0538186 0.286091 0
0.0865034 0.286412 0
0.119936 0.286595 0.000396735
0.154788 0.286442 0.0115206
0.190829 0.286015 0.0248112
0.227466 0.285481 0.0397803
0.264363 0.284932 0.0556954
0.300633 0.284672 0.0719921
0.335546 0.284871 0.0881666
0.368597 0.285725 0.103822
0.399466 0.287297 0.118807
0.428855 0.289433 0.132799
0.459098 0.291752 0.13962
0.517128 0.290593 0.0528115
0.576394 0.288319 0
0.614145 0.289036 0
0.65095 0.290059 0
0.686122 0.291524 0
0.71989 0.2934 0
0.751995 0.295735 0
0.782422 0.298512 0
0.811521 0.30164 0
0.839185 0.305119 0.00192264
0.865629 0.308904 0.00570687
0.891295 0.312856 0.00965896
0.916014 0.317006 0.0138094
0.940368 0.321202 0.0180056
0.964157 0.32549 0.0222782
0.988052 0.329778 0.0265812
1 0.334157 0.0309606
1 0.338628 0.0354314
0 0.322744 0
0.0171664 0.322103 0
0.0502174 0.322805 0
0.0831769 0.323568 0
0.11696 0.324102 0
0.1523 0.324224 0.00576791
0.189075 0.323934 0.0178988
0.226719 0.323384 0.0317082
0.264927 0.322713 0.0466926
0.302708 0.322194 0.0624247
0.339254 0.322072 0.0784772
0.373907 0.322545 0.0944839
0.406271 0.323751 0.110185
0.437003 0.325536 0.125154
0.475242 0.327749 0.0981765
0.531426 0.328557 0.0104829
0.576684 0.328756 0
0.614496 0.329549 0
0.651331 0.330587 0
0.686519 0.332082 0
0.720287 0.333944 0
0.752346 0.336233 0
0.782712 0.338949 0
0.811719 0.34197 0
0.839261 0.345342 0.00199893
0.865553 0.348989 0.00563058
0.891096 0.352804 0.00944533
0.91577 0.356909 0.0135653
0.940154 0.361135 0.017792
0.964065 0.365545 0.0222019
0.988083 0.369955 0.0266117
1 0.374426 0.0310826
1 0.379004 0.0356603
0 0.36022 0
0.0142214 0.360006 0
0.0475624 0.361105 0
0.0807813 0.362249 0
0.114809 0.363149 0
0.1505 0.363577 0.00144961
0.187808 0.3635 0.0125734
0.226246 0.363088 0.02533
0.265461 0.362417 0.0393378
0.304494 0.361791 0.0543069
0.342428 0.361471 0.0699321
0.378531 0.361685 0.0858778
0.412329 0.362585 0.101869
0.446952 0.364797 0.0936141
0.490578 0.367666 0.0349432
0.537789 0.368978 0
0.576654 0.369482 0
0.61445 0.370245 0
0.65124 0.371252 0
0.686351 0.372656 0
0.719997 0.374411 0
0.751934 0.376577 0
0.782132 0.379141 0
0.811048 0.382055 0
0.838575 0.385412 0.00131228
0.864942 0.389136 0.00503548
0.890608 0.393072 0.0089723
0.915404 0.397299 0.0131991
0.939879 0.401617 0.0175174
0.963882 0.406104 0.0220035
0.987961 0.41059 0.0264897
1 0.415106 0.0310063
1 0.419715 0.0356146
0 0.398871 0
0.0125887 0.399008 0
0.0454566 0.400702 0
0.0785077 0.402289 0
0.113115 0.403311 0
0.149569 0.403723 0
0.18732 0.403769 0.00885023
0.226276 0.403449 0.0205997
0.266239 0.402762 0.0335699
0.306203 0.402014 0.0476539
0.345235 0.401495 0.062562
0.382345 0.401923 0.0713054
0.418189 0.404028 0.0599069
0.456413 0.407065 0.0242161
0.498283 0.40914 0
0.537865 0.409537 0
0.576623 0.409949 0
0.614298 0.410605 0
0.65095 0.41146 0
0.685908 0.412741 0
0.719493 0.41442 0
0.751446 0.416602 0
0.78175 0.419272 0
0.810788 0.422309 0
0.838422 0.425772 0.00115969
0.864881 0.429587 0.00497444
0.890623 0.4336 0.00898756
0.915465 0.437873 0.0132753
0.940002 0.442252 0.0176394
0.964019 0.446769 0.0221561
0.988113 0.451255 0.0266423
1 0.455772 0.0311589
1 0.460349 0.0357366
0 0.438361 0
0.0121767 0.438727 0
0.0451057 0.440665 0
0.0771954 0.442893 0
0.109773 0.445014 0
0.144869 0.446311 0
0.182712 0.446632 0
0.22237 0.446326 0.0016022
0.26305 0.445731 0.0107881
0.303563 0.445319 0.0174258
0.343145 0.445533 0.0183719
0.38175 0.446616 0.0105135
0.42005 0.44828 0
0.459236 0.449271 0
0.498634 0.449439 0
0.537789 0.449592 0
0.576425 0.449882 0
0.614054 0.450492 0
0.650752 0.451408 0
0.685847 0.452796 0
0.719539 0.454597 0
0.751598 0.456886 0
0.781994 0.459632 0
0.811093 0.462745 0
0.838788 0.46627 0.0015259
0.865278 0.470115 0.00537118
0.891051 0.474144 0.00941482
0.915892 0.478431 0.0136873
0.940414 0.482795 0.0180514
0.964416 0.487282 0.0225376
0.988464 0.491737 0.0269932
1 0.496193 0.0314488
1 0.500694 0.0359503
0 0.478706 0
0.0118257 0.479194 0
0.0448615 0.481254 0
0.0770428 0.483558 0
0.109575 0.485771 0
0.143648 0.487572 0
0.179629 0.488838 0
0.21738 0.489601 0
0.256992 0.489845 0
0.297688 0.489738 0
0.338735 0.489494 0
0.379446 0.489281 0
0.419196 0.48925 0
0.458503 0.489387 0
0.497917 0.489525 0
0.537148 0.489769 0
0.575906 0.490196 0
0.613642 0.490913 0
0.650446 0.49192 0
0.685618 0.4934 0
0.719387 0.495262 0
0.751476 0.497581 0
0.781903 0.500374 0
0.811017 0.503502 0
0.838712 0.507012 0.00144961
0.865202 0.510842 0.00527962
0.890929 0.514855 0.00929274
0.915724 0.519097 0.0135195
0.940185 0.523384 0.0178225
0.964096 0.527794 0.0222324
0.988052 0.532143 0.0265812
1 0.536492 0.03093
1 0.540887 0.0353094
0 0.519478 0
0.0115358 0.520012 0
0.0445869 0.522087 0
0.0767529 0.524376 0
0.109255 0.526543 0
0.143267 0.528283 0
0.179156 0.529458 0
0.2168 0.530114 0
0.25626 0.530221 0
0.296818 0.529976 0
0.337804 0.529656 0
0.378546 0.529473 0
0.418402 0.529564 0
0.457832 0.529809 0
0.497337 0.530068 0
0.536675 0.530404 0
0.575494 0.530892 0
0.613306 0.53167 0
0.650141 0.532723 0
0.685328 0.534218 0
0.719112 0.536095 0
0.751202 0.538415 0
0.781613 0.541176 0
0.810681 0.544274 0
0.838331 0.547738 0.00106813
0.864744 0.551492 0.00482185
0.890379 0.555413 0.00874342
0.915084 0.559548 0.0128786
0.939422 0.563729 0.0170596
0.963211 0.568002 0.0213321
0.987015 0.572213 0.0255436
1 0.576394 0.0297246
1 0.580606 0.0339361
0 0.56022 0
0.0113527 0.560708 0
0.0443275 0.562707 0
0.0764019 0.564889 0
0.108782 0.566949 0
0.142641 0.568536 0
0.178408 0.569604 0
0.216022 0.570214 0
0.255543 0.570382 0
0.296223 0.57026 0
0.337331 0.570062 0
0.37818 0.569986 0
0.418128 0.570153 0
0.457618 0.570474 0
0.497169 0.570779 0
0.536538 0.571145 0
0.575387 0.571649 0
0.613184 0.572442 0
0.650019 0.57348 0
0.685191 0.574945 0
0.718914 0.576776 0
0.750957 0.579034 0
0.781277 0.58172 0
0.810269 0.584726 0
0.837797 0.588083 0.000534066
0.864088 0.59173 0.00418097
0.889601 0.595499 0.00796521
0.914153 0.599496 0.0119478
0.938323 0.60351 0.0159609
0.961913 0.607584 0.0200504
0.985519 0.611597 0.0240482
1 0.615564 0.0280156
1 0.619532 0.0319829
0 0.600488 0
0.011368 0.600839 0
0.0441901 0.602686 0
0.076173 0.604791 0
0.108553 0.606851 0
0.142504 0.60853 0
0.178408 0.60972 0
0.216129 0.610452 0
0.255741 0.610697 0
0.296498 0.610666 0
0.337667 0.610529 0
0.378561 0.610483 0
0.418524 0.610697 0
0.458045 0.611017 0
0.497597 0.611322 0
0.53695 0.611673 0
0.575753 0.612161 0
0.613519 0.612894 0
0.650278 0.61387 0
0.685359 0.615259 0
0.71899 0.616983 0
0.750927 0.619135 0
0.781125 0.621698 0
0.809964 0.624552 0
0.837339 0.627756 7.62951e-05
0.863447 0.63122 0.00354009
0.888777 0.634806 0.00712596
0.913115 0.63859 0.0109102
0.937057 0.642374 0.0146944
0.960418 0.64622 0.018555
0.98378 0.649973 0.0222934
1 0.653666 0.0260014
1 0.657359 0.0296788
0 0.640024 0
0.0120546 0.640421 0
0.0449989 0.642374 0
0.0771038 0.644602 0
0.10959 0.646769 0
0.143633 0.648524 0
0.179599 0.64979 0
0.21738 0.650584 0
0.257038 0.650874 0
0.29781 0.650843 0
0.338994 0.650736 0
0.379873 0.650675 0
0.419821 0.650858 0
0.459297 0.651148 0
0.498802 0.651408 0
0.538079 0.651682 0
0.576806 0.652079 0
0.61445 0.652705 0
0.651102 0.653559 0
0.686061 0.65481 0
0.719539 0.656397 0
0.751293 0.658381 0
0.781323 0.660761 0
0.809964 0.663432 0
0.837125 0.666407 0
0.863005 0.669642 0.00309758
0.88809 0.672984 0.00643931
0.912169 0.676509 0.00996414
0.935836 0.680018 0.0134737
0.958907 0.683574 0.0170291
0.981949 0.687022 0.0204776
1 0.690379 0.0238346
1 0.693736 0.0271763
0 0.679362 0
0.0144045 0.67985 0
0.0474403 0.681895 0
0.0796063 0.684184 0
0.112139 0.686397 0
0.146212 0.688197 0
0.182193 0.689464 0
0.219989 0.690257 0
0.259632 0.690547 0
0.300374 0.690501 0
0.341512 0.690333 0
0.38233 0.690211 0
0.422202 0.690318 0
0.461585 0.690517 0
0.500984 0.690669 0
0.540139 0.690822 0
0.578714 0.691066 0
0.61622 0.691554 0
0.652689 0.692226 0
0.687465 0.693294 0
0.720745 0.694682 0
0.752285 0.696452 0
0.782071 0.698589 0
0.810468 0.700999 0
0.837354 0.703716 9.15541e-05
0.862959 0.706676 0.0030518
0.887739 0.709728 0.00608835
0.911498 0.712917 0.00929274
0.934844 0.716106 0.0124819
0.957565 0.71931 0.0156863
0.980255 0.722423 0.0187839
1 0.725444 0.0218204
1 0.72845 0.0248264
0 0.718334 0
0.018555 0.718868 0
0.051606 0.720943 0
0.0838026 0.723232 0
0.116335 0.725444 0
0.150378 0.72723 0
0.186328 0.728466 0
0.224063 0.729213 0
0.263645 0.729427 0
0.304311 0.72929 0
0.345342 0.72903 0
0.386053 0.728801 0
0.425803 0.728786 0
0.465034 0.728832 0
0.504265 0.728817 0
0.543236 0.728801 0
0.581643 0.728862 0
0.618921 0.729122 0
0.655177 0.72958 0
0.689708 0.730419 0
0.722728 0.731533 0
0.753994 0.733028 0
0.78349 0.73489 0
0.811582 0.736996 0
0.838148 0.739391 0.000885023
0.863416 0.742 0.00350958
0.887846 0.744717 0.00621042
0.911269 0.74757 0.00906386
0.934279 0.750408 0.0119173
0.956664 0.753292 0.0148013
0.979034 0.756054 0.0175631
1 0.758755 0.020264
1 0.76144 0.0229343
0 0.756756 0
0.0243229 0.757275 0
0.0573434 0.759335 0
0.0894942 0.761593 0
0.121965 0.763745 0
0.155947 0.765454 0
0.191806 0.766613 0
0.229435 0.767239 0
0.268894 0.76733 0
0.309438 0.767071 0
0.350317 0.766659 0
0.39086 0.766262 0
0.430426 0.766049 0
0.469459 0.765911 0
0.508476 0.765682 0
0.547219 0.765438 0
0.585367 0.76524 0
0.6224 0.765255 0
0.658366 0.765438 0
0.692607 0.765972 0
0.725322 0.766781 0
0.756252 0.767941 0
0.785412 0.769467 0
0.813153 0.771221 7.62951e-05
0.839384 0.773281 0.00213626
0.864317 0.775555 0.00440986
0.888426 0.777935 0.00677501
0.911513 0.780453 0.009308
0.934188 0.782971 0.0118257
0.956237 0.785519 0.014374
0.978286 0.787961 0.0168154
1 0.790341 0.0191958
1 0.792706 0.0215457
0 0.794476 0
0.0314794 0.794934 0
0.0644236 0.796918 0
0.0964828 0.799084 0
0.128847 0.801114 0
0.162692 0.802701 0.00105287
0.198413 0.803723 0.00205997
0.235889 0.804196 0.00254826
0.275181 0.80412 0.0024567
0.315526 0.803662 0.00201419
0.356207 0.803052 0.00138857
0.396521 0.802441 0.00077821
0.435843 0.801999 0.000335698
0.474632 0.801602 0
0.51339 0.801099 0
0.551843 0.800565 0
0.5897 0.800076 0
0.626398 0.799756 0
0.662043 0.799619 0
0.695933 0.799802 0
0.728298 0.800275 0
0.758907 0.801099 0
0.787732 0.802289 0.00062562
0.815137 0.803723 0.00205997
0.841047 0.805432 0.00378424
0.865644 0.807385 0.00572213
0.889418 0.80943 0.0077821
0.912184 0.811643 0.0099794
0.934539 0.813825 0.0121767
0.956283 0.816068 0.0144045
0.977996 0.818189 0.0165255
0.999496 0.820249 0.0186007
1 0.822293 0.0206455
0.00125124 0.831342 0.00125124
0.0397803 0.831678 0.0016022
0.0726024 0.833524 0.00343328
0.104509 0.835554 0.00546273
0.136721 0.83743 0.00733959
0.170397 0.838834 0.00874342
0.205921 0.839658 0.00956741
0.243183 0.839918 0.00984207
0.282246 0.839612 0.00952163
0.322347 0.838926 0.00883497
0.362768 0.838041 0.00796521
0.402808 0.837156 0.00708019
0.441855 0.836423 0.00633249
0.480323 0.835721 0.00563058
0.518761 0.834897 0.00480659
0.556878 0.834028 0.00393683
0.594385 0.833204 0.00311284
0.630762 0.832547 0.0024567
0.666056 0.832059 0.00196841
0.699611 0.831907 0.00183108
0.731655 0.832044 0.00196841
0.761913 0.832547 0.0024567
0.790417 0.833402 0.00331121
0.817502 0.834516 0.00442512
0.843076 0.835904 0.00581369
0.867369 0.837537 0.0074464
0.890822 0.839261 0.00917067
0.913268 0.841154 0.0110628
0.935302 0.84303 0.0129397
0.956741 0.844953 0.0148623
0.978149 0.846769 0.0166781
0.999344 0.848539 0.0184482
1 0.850278 0.0201877
0.0105592 0.867216 0.0105592
0.0489204 0.867399 0.0107271
0.0815595 0.869047 0.0123903
0.113268 0.870878 0.0142214
0.145251 0.872541 0.0158846
0.178698 0.873716 0.0170443
0.213977 0.874281 0.0176242
0.25098 0.874296 0.0176394
0.289754 0.873701 0.0170443
0.329564 0.872724 0.0160525
0.36968 0.871534 0.0148623
0.409384 0.870314 0.0136568
0.448096 0.86923 0.0125734
0.486229 0.868193 0.0115358
0.524315 0.867033 0.0103761
0.562097 0.865827 0.00915541
0.599268 0.864652 0.00799573
0.635309 0.863676 0.00700389
0.670283 0.862852 0.00619516
0.703502 0.862379 0.00572213
0.735225 0.862196 0.00553903
0.765164 0.862379 0.00570687
0.793347 0.862913 0.00624094
0.820111 0.863691 0.00703441
0.84538 0.864775 0.0081178
0.869352 0.866102 0.00943008
0.8925 0.867521 0.0108492
0.914641 0.869093 0.0124361
0.93637 0.870665 0.0140078
0.957504 0.872282 0.0156252
0.978622 0.873808 0.0171359
0.999527 0.875273 0.018616
1 0.876753 0.0200809
0.0202182 0.902068 0.0202182
0.0583658 0.902037 0.0201724
0.0907759 0.903456 0.0216068
0.122225 0.905028 0.0231632
0.153948 0.906416 0.024567
0.187106 0.907301 0.025452
0.22208 0.907576 0.0257267
0.258762 0.907256 0.0254063
0.2972 0.90634 0.0244907
