03_Blackmagic LUTs_Chocolate Shade.cube
TITLE "Generated by Resolve"
LUT_3D_SIZE 5
0 0 0
0.183825 0.0660563 0.0953841
0.543343 0 0
0.778729 0 0
0.95436 0 0
0 0.191257 0
0.256962 0.189761 0.0894331
0.569055 0.174685 0
0.830091 0.187182 0
1 0.221454 0.0271
0 0.478706 0
0.256992 0.489845 0
0.575906 0.490196 0
0.838712 0.507012 0.00144961
1 0.540887 0.0353094
0 0.794476 0
0.275181 0.80412 0.0024567
0.5897 0.800076 0
0.841047 0.805432 0.00378424
1 0.822293 0.0206455
0.0593576 1 0.0593576
0.323384 1 0.0506752
0.618204 1 0.0269169
0.852399 1 0.0151369
1 1 0.019379
0.00262455 0.00262455 0.148241
0.234714 0.014313 0.11664
0.546532 0 0.100877
0.78352 0 0.0918746
0.961715 0 0.107317
0.00257877 0.196933 0.148196
0.270207 0.191852 0.143099
0.485924 0.226398 0.184619
0.842771 0.199878 0.151125
1 0.234394 0.185641
0 0.491646 0.131701
0.269673 0.502525 0.142565
0.574746 0.500603 0.211475
0.849668 0.520272 0.162615
1 0.553048 0.193088
0.00556954 0.807218 0.151171
0.286854 0.815793 0.159747
0.599481 0.809857 0.153811
0.848676 0.813077 0.157031
1 0.827924 0.171878
0.0662547 1 0.211872
0.328313 1 0.201205
0.621744 1 0.176074
0.855177 1 0.163531
1 1 0.16759
0 0 0.43061
0.248402 0 0.411337
0.539727 0 0.384115
0.778714 0 0.377111
0.959548 0 0.395209
0 0.193072 0.434379
0.269062 0.190707 0.432013
0.553872 0.203342 0.405081
0.845289 0.20238 0.443671
1 0.236667 0.477958
0 0.49424 0.424323
0.271702 0.50454 0.434638
0.591348 0.505638 0.435737
0.779126 0.54229 0.472374
1 0.55433 0.484413
0.00761425 0.809262 0.443275
0.287556 0.816495 0.450492
0.598093 0.808469 0.442466
0.844755 0.809461 0.44564
1 0.822446 0.456458
0.0620279 1 0.497688
0.322255 1 0.485206
0.614527 1 0.458915
0.847395 1 0.445792
1 1 0.449882
0 0 0.751812
0.237827 0 0.732815
0.530434 0 0.706859
0.771756 0 0.70219
0.955322 0 0.723018
0 0.187076 0.760418
0.265858 0.187503 0.760845
0.582254 0.185321 0.758663
0.844831 0.201923 0.775265
1 0.23566 0.809003
0 0.49369 0.755825
0.270939 0.503777 0.765911
0.590906 0.50518 0.767315
0.823331 0.533455 0.758862
1 0.552041 0.814176
0.0062562 0.807919 0.773953
0.284581 0.813519 0.779553
0.59295 0.803326 0.769375
0.83798 0.80238 0.768414
1 0.813413 0.779446
0.0540932 1 0.82179
0.312718 1 0.807706
0.604028 1 0.780453
0.83653 0.999268 0.766979
1 1 0.771298
0 0 0.980453
0.234791 0 0.962066
0.529015 0 0.937743
0.7729 0 0.935637
0.959243 0 0.959243
0 0.189212 0.994858
0.270726 0.19237 0.998001
0.588693 0.191775 0.997421
0.851499 0.208591 1
1 0.242084 1
0 0.500084 0.994522
0.277562 0.510414 1
0.597559 0.511849 1
0.8589 0.527199 1
1 0.556313 1
0.0116426 0.813306 1
0.28806 0.816999 1
0.594293 0.804669 1
0.837308 0.801709 1
1 0.811093 1
0.0527352 1 1
0.309987 1 1
0.600534 1 1
0.832883 0.995621 0.995621
1 1 1
